!!!SOCIAL_FUNCTION:	songs connected with rare medicines
!!!PDT:	1909
!!!OTL: No_84_Song_of_Good_Medicine.krn
!!!REG: Great_Lakes
!!!LANG: Non-Tone
!!!LING_GROUP: Algonquin
**kern	**kern
*staff2	*staff1
=1-	=1-
*clefF4	*clefF4
*k[b-e-a-d-g-]	*k[b-e-a-d-g-]
*M2/4	*M2/4
8GG-/L	8A-\L
8GG-/J	8A-\J
8GG-/L	8A-\L
8GG-/J	16A-\L
.	16A-\JJ
=2	=2
8GG-/L	8.A-\L
8GG-/J	.
.	16B-\Jk
8GG-/L	4B-\
8GG-/J	.
=3||	=3||
*M3/4	*M3/4
2.r	4A-\
.	16A-\LK
.	[8.A-\J
.	4A-\]
=4||	=4||
*M2/4	*M2/4
2r	8d-\L
.	8d-\J
.	8d-\L
.	16d-\L
.	16d-\JJ
=5	=5
2r	8.d-\L
.	16A-\Jk
.	4A-\
=6	=6
2r	8A-\L
.	16A-\L
.	[16D-\JJ
.	8.D-\L]
.	16D-\Jk
=7	=7
2r	4D-\
.	8.E-\L
.	16G-\Jk
=8||	=8||
*M3/4	*M3/4
2.r	4G-\
.	8G-\L
.	16A-\L
.	16A-\JJ
.	8A-\L
.	16A-\L
.	16A-\JJ
=9	=9
2.r	8.G-\L
.	16G-\Jk
.	4G-\
.	8E-\L
.	16G-\L
.	16G-\JJ
=10	=10
2.r	8G-\L
.	16D-\L
.	16D-\JJ
.	8.D-\L
.	16D-\Jk
.	4E-;\
=11	=11
2.r	4.D-\
.	[8D-\
.	16D-\LK]
.	8.D-\J
==	==
*-	*-
